Hatter-kde/actions/22/format-border-style.svg

<svg xmlns="http://www.w3.org/2000/svg" viewBox="0 0 22 22">
  <defs id="defs3051">
    <style type="text/css" id="current-color-scheme">
      .ColorScheme-Text {
        color:#363636;
      }
      </style>
  </defs>
 <path 
    style="fill:currentColor;fill-opacity:1;stroke:none" 
    d="M 11.996094 3.0019531 L 4.6699219 10.328125 L 4.6679688 10.324219 L 3.2539062 11.738281 L 3.2558594 11.742188 L 3.0058594 11.992188 L 3 11.992188 L 3 16 L 4 16 L 6 16 L 7.0078125 16 L 7.2597656 15.748047 L 7.6132812 15.394531 L 8.3203125 14.6875 L 8.6757812 14.333984 L 15.998047 7.0039062 L 12 3.0039062 L 11.996094 3.0019531 z M 11.412109 4.9980469 L 14 7.5878906 L 9.7324219 11.855469 L 7.1445312 9.265625 L 11.412109 4.9980469 z M 6.4375 9.9726562 L 9.0253906 12.5625 L 8.3183594 13.269531 L 5.7285156 10.679688 L 6.0019531 10.408203 L 6.4375 9.9726562 z M 5.0214844 11.386719 L 7.6113281 13.976562 L 7.6152344 13.978516 L 6.9082031 14.685547 L 6.9042969 14.683594 L 4.3144531 12.09375 L 5.0214844 11.386719 z M 3 18 L 3 19 L 19 19 L 19 18 L 3 18 z "
    class="ColorScheme-Text"
    />  
</svg>

<?xml version="1.0" encoding="UTF-8"?>
<svg viewBox="0 0 22 22" xmlns="http://www.w3.org/2000/svg">
 <defs id="defs3051">
  <style id="current-color-scheme" type="text/css">.ColorScheme-Text {
        color:#363636;
      }</style>
 </defs>
 <path class="ColorScheme-Text" d="m11.996 3.002-7.3262 7.3262-0.0019531-0.003906-1.4141 1.4141 0.0019532 0.003907-0.25 0.25h-0.0058594v4.0078h1 2 1.0078l1.3125-1.3125 0.35547-0.35352 7.3223-7.3301-3.998-4-0.003906-0.0019531zm-0.58398 1.9961 2.5879 2.5898-4.2676 4.2676-2.5879-2.5898 4.2676-4.2676zm-4.9746 4.9746 2.5879 2.5898-0.70703 0.70703-2.5898-2.5898 0.27344-0.27148 0.43555-0.43555zm-1.416 1.4141 2.5898 2.5898 0.0039063 0.001954-0.70703 0.70703-0.0039062-0.001953-2.5898-2.5898 0.70703-0.70703zm-2.0215 6.6133v1h16v-1h-16z" fill="currentColor"/>
</svg>
